utils/icons-generator/ic_status_watching.svg

<?xml version="1.0" encoding="UTF-8"?>
<svg xmlns="http://www.w3.org/2000/svg" xmlns:xlink="http://www.w3.org/1999/xlink" width="1000pt" height="1000pt" viewBox="0 0 1000 1000" version="1.1">
<g id="surface1">
<path style=" stroke:none;fill-rule:nonzero;fill:rgb(0%,0%,0%);fill-opacity:1;" d="M 869.121094 698.121094 L 130.878906 698.121094 C 120.09375 698.121094 111.347656 689.375 111.347656 678.589844 L 111.347656 160.273438 C 111.347656 149.488281 120.09375 140.742188 130.878906 140.742188 L 869.121094 140.742188 C 879.90625 140.742188 888.652344 149.488281 888.652344 160.273438 L 888.652344 678.589844 C 888.652344 689.375 879.90625 698.121094 869.121094 698.121094 Z M 150.410156 659.058594 L 849.589844 659.058594 L 849.589844 179.804688 L 150.410156 179.804688 Z M 150.410156 659.058594 "/>
<path style=" stroke:none;fill-rule:nonzero;fill:rgb(0%,0%,0%);fill-opacity:1;" d="M 372.960938 585.65625 C 369.585938 585.65625 366.21875 584.785156 363.195312 583.042969 C 357.152344 579.554688 353.429688 573.105469 353.429688 566.125 L 353.429688 272.738281 C 353.429688 265.761719 357.152344 259.3125 363.195312 255.824219 C 369.238281 252.335938 376.683594 252.335938 382.726562 255.824219 L 636.804688 402.515625 C 642.847656 406.003906 646.570312 412.453125 646.570312 419.429688 C 646.570312 426.410156 642.847656 432.855469 636.804688 436.34375 L 382.726562 583.039062 C 379.703125 584.785156 376.335938 585.65625 372.960938 585.65625 Z M 392.492188 306.570312 L 392.492188 532.296875 L 587.976562 419.429688 Z M 392.492188 306.570312 "/>
<path style=" stroke:none;fill-rule:nonzero;fill:rgb(0%,0%,0%);fill-opacity:1;" d="M 869.121094 812.378906 L 279.296875 812.378906 C 268.511719 812.378906 259.765625 803.636719 259.765625 792.847656 C 259.765625 782.0625 268.511719 773.316406 279.296875 773.316406 L 869.121094 773.316406 C 879.90625 773.316406 888.652344 782.0625 888.652344 792.847656 C 888.652344 803.636719 879.90625 812.378906 869.121094 812.378906 Z M 869.121094 812.378906 "/>
<path style=" stroke:none;fill-rule:nonzero;fill:rgb(0%,0%,0%);fill-opacity:1;" d="M 195.3125 812.378906 L 130.878906 812.378906 C 120.09375 812.378906 111.347656 803.636719 111.347656 792.847656 C 111.347656 782.0625 120.09375 773.316406 130.878906 773.316406 L 195.3125 773.316406 C 206.097656 773.316406 214.84375 782.0625 214.84375 792.847656 C 214.84375 803.636719 206.097656 812.378906 195.3125 812.378906 Z M 195.3125 812.378906 "/>
<path style=" stroke:none;fill-rule:nonzero;fill:rgb(0%,0%,0%);fill-opacity:1;" d="M 255.859375 859.253906 L 218.75 859.253906 C 195.054688 859.253906 175.78125 839.980469 175.78125 816.285156 L 175.78125 769.410156 C 175.78125 745.71875 195.054688 726.441406 218.75 726.441406 L 255.859375 726.441406 C 279.554688 726.441406 298.828125 745.71875 298.828125 769.410156 L 298.828125 816.285156 C 298.828125 839.980469 279.554688 859.253906 255.859375 859.253906 Z M 218.75 765.503906 C 216.59375 765.503906 214.84375 767.257812 214.84375 769.410156 L 214.84375 816.285156 C 214.84375 818.441406 216.59375 820.191406 218.75 820.191406 L 255.859375 820.191406 C 258.015625 820.191406 259.765625 818.441406 259.765625 816.285156 L 259.765625 769.410156 C 259.765625 767.257812 258.015625 765.503906 255.859375 765.503906 Z M 218.75 765.503906 "/>
</g>
</svg>

<?xml version="1.0" encoding="UTF-8" standalone="no"?>
<svg
   xmlns:dc="http://purl.org/dc/elements/1.1/"
   xmlns:cc="http://creativecommons.org/ns#"
   xmlns:rdf="http://www.w3.org/1999/02/22-rdf-syntax-ns#"
   xmlns:svg="http://www.w3.org/2000/svg"
   xmlns="http://www.w3.org/2000/svg"
   xmlns:sodipodi="http://sodipodi.sourceforge.net/DTD/sodipodi-0.dtd"
   xmlns:inkscape="http://www.inkscape.org/namespaces/inkscape"
   width="1000pt"
   height="1000pt"
   viewBox="0 0 1000 1000"
   version="1.1"
   id="svg1590"
   sodipodi:docname="ic_status_watching.svg"
   inkscape:version="0.92.4 (5da689c313, 2019-01-14)">
  <metadata
     id="metadata1596">
    <rdf:RDF>
      <cc:Work
         rdf:about="">
        <dc:format>image/svg+xml</dc:format>
        <dc:type
           rdf:resource="http://purl.org/dc/dcmitype/StillImage" />
      </cc:Work>
    </rdf:RDF>
  </metadata>
  <defs
     id="defs1594" />
  <sodipodi:namedview
     pagecolor="#ffffff"
     bordercolor="#666666"
     borderopacity="1"
     objecttolerance="10"
     gridtolerance="10"
     guidetolerance="10"
     inkscape:pageopacity="0"
     inkscape:pageshadow="2"
     inkscape:window-width="2560"
     inkscape:window-height="1346"
     id="namedview1592"
     showgrid="false"
     inkscape:zoom="0.177"
     inkscape:cx="666.66667"
     inkscape:cy="666.66667"
     inkscape:window-x="-11"
     inkscape:window-y="-11"
     inkscape:window-maximized="1"
     inkscape:current-layer="svg1590" />
  <g
     id="surface1"
     transform="matrix(1.2832805,0,0,1.2832805,-141.64027,-141.63776)">
    <path
       style="fill:#000000;fill-opacity:1;fill-rule:nonzero;stroke:none"
       d="M 869.12109,698.12109 H 130.87891 c -10.78516,0 -19.53125,-8.74609 -19.53125,-19.53125 v -518.3164 c 0,-10.78516 8.74609,-19.53125 19.53125,-19.53125 h 738.24218 c 10.78516,0 19.53125,8.74609 19.53125,19.53125 v 518.3164 c 0,10.78516 -8.74609,19.53125 -19.53125,19.53125 z M 150.41016,659.05859 H 849.58984 V 179.80469 H 150.41016 Z m 0,0"
       id="path1579"
       inkscape:connector-curvature="0" />
    <path
       style="fill:#000000;fill-opacity:1;fill-rule:nonzero;stroke:none"
       d="m 372.96094,585.65625 c -3.375,0 -6.74219,-0.87109 -9.76563,-2.61328 -6.04297,-3.48828 -9.76562,-9.9375 -9.76562,-16.91797 V 272.73828 c 0,-6.97656 3.72265,-13.42578 9.76562,-16.91406 6.04297,-3.48828 13.48828,-3.48828 19.53125,0 l 254.07813,146.6914 c 6.04297,3.48829 9.76562,9.9375 9.76562,16.91407 0,6.98047 -3.72265,13.42578 -9.76562,16.91406 L 382.72656,583.03906 c -3.02344,1.7461 -6.39062,2.61719 -9.76562,2.61719 z M 392.49219,306.57031 V 532.29687 L 587.97656,419.42969 Z m 0,0"
       id="path1581"
       inkscape:connector-curvature="0" />
    <path
       style="fill:#000000;fill-opacity:1;fill-rule:nonzero;stroke:none"
       d="M 869.12109,812.37891 H 279.29687 c -10.78515,0 -19.53125,-8.74219 -19.53125,-19.53125 0,-10.78516 8.7461,-19.53125 19.53125,-19.53125 h 589.82422 c 10.78516,0 19.53125,8.74609 19.53125,19.53125 0,10.78906 -8.74609,19.53125 -19.53125,19.53125 z m 0,0"
       id="path1583"
       inkscape:connector-curvature="0" />
    <path
       style="fill:#000000;fill-opacity:1;fill-rule:nonzero;stroke:none"
       d="m 195.3125,812.37891 h -64.43359 c -10.78516,0 -19.53125,-8.74219 -19.53125,-19.53125 0,-10.78516 8.74609,-19.53125 19.53125,-19.53125 h 64.43359 c 10.78516,0 19.53125,8.74609 19.53125,19.53125 0,10.78906 -8.74609,19.53125 -19.53125,19.53125 z m 0,0"
       id="path1585"
       inkscape:connector-curvature="0" />
    <path
       style="fill:#000000;fill-opacity:1;fill-rule:nonzero;stroke:none"
       d="M 255.85937,859.25391 H 218.75 c -23.69531,0 -42.96875,-19.27344 -42.96875,-42.96875 v -46.875 c 0,-23.69141 19.27344,-42.96875 42.96875,-42.96875 h 37.10937 c 23.69532,0 42.96875,19.27734 42.96875,42.96875 v 46.875 c 0,23.69531 -19.27343,42.96875 -42.96875,42.96875 z m -37.10937,-93.75 c -2.15625,0 -3.90625,1.7539 -3.90625,3.90625 v 46.875 c 0,2.15625 1.75,3.90625 3.90625,3.90625 h 37.10937 c 2.15625,0 3.90625,-1.75 3.90625,-3.90625 v -46.875 c 0,-2.15235 -1.75,-3.90625 -3.90625,-3.90625 z m 0,0"
       id="path1587"
       inkscape:connector-curvature="0" />
  </g>
</svg>
